X: 1
T: Bridal Festival Quadrille Part 3
M: 6/8
L: 1/8
B: Danse ce Soir #33 p.62
B: Philippe Bruneau: Musique traditionnelle pour accord\'eon diatonique (ed. Carmelle B\'egin)
N: From the repertoire of Jos Bouchard.
K: Am
|:"Am"EAB cBA | EAB cBA | EAB cBA | e3- e2e \
| "E7"Bee Bee | Bee e2e | efe dcB |1 "Am"cAA A3 :|2 "Am"A3 "G7"G3 ||
K: C
|: "C"G3 EGc | e3- e2e | e2d "C7"c2d | "F"A6 \
| A2B cBA | "C"GEG e3 | "G7"G2G GAB |1 "C"cGE C3 :|2 "C"Hc3 "C7"_B3 ||
K: F
|: "F"A2A AFA | "Bb"d3 "F"c3 | A2A cAc | "C7"BGE CEG \
| "Gm"B2B BAB | "C7"e3 d3 | cdc BAG | "F"AFD "(C7)"CA,C |
|  "F"FAA AFA | "Bb"d3 "F"c3 | A2A "D7"cAc | "Gm"B3 B3 \
| "Bb"d2d d2d | "F"cdc "D7"c=Bc | "Gm"edc "C7"BAG | "F"FAc f3 :|
